icons/category/icon_category-salary_m_black.svg

<?xml version="1.0" encoding="UTF-8"?>
<svg width="24px" height="24px" viewBox="0 0 24 24" version="1.1" xmlns="http://www.w3.org/2000/svg" xmlns:xlink="http://www.w3.org/1999/xlink">
    <!-- Generator: Sketch 48.2 (47327) - http://www.bohemiancoding.com/sketch -->
    <title>icon_category-award_m_black</title>
    <desc>Created with Sketch.</desc>
    <defs></defs>
    <g id="Page-1" stroke="none" stroke-width="1" fill="none" fill-rule="evenodd">
        <g id="icon_category-award_m_black">
            <rect id="Rectangle" x="0" y="0" width="24" height="24"></rect>
            <path d="M12,18.5 C15.5898509,18.5 18.5,15.5898509 18.5,12 C18.5,8.41014913 15.5898509,5.5 12,5.5 C8.41014913,5.5 5.5,8.41014913 5.5,12 C5.5,15.5898509 8.41014913,18.5 12,18.5 Z M12,17.5 C8.96243388,17.5 6.5,15.0375661 6.5,12 C6.5,8.96243388 8.96243388,6.5 12,6.5 C15.0375661,6.5 17.5,8.96243388 17.5,12 C17.5,15.0375661 15.0375661,17.5 12,17.5 Z M19.612,1.658 C19.058,0.884 18.302,0.898 17.711,1.56 C17.34,1.976 17.003,2.65 16.681,3.529 C16.4195325,4.24499288 16.1998299,4.97555396 16.023,5.717 L16.996,5.945 C17.026,5.818 17.083,5.592 17.165,5.3 C17.3,4.812 17.453,4.326 17.619,3.874 C17.901,3.105 18.192,2.522 18.457,2.226 C18.643,2.017 18.64,2.017 18.799,2.24 C19.035,2.57 19.281,3.22 19.514,4.205 L19.585,4.506 L19.886,4.576 C20.923,4.82 21.586,5.078 21.89,5.32 C22.055,5.45 22.055,5.45 21.835,5.64 C21.531,5.9 20.957,6.185 20.208,6.461 C19.7392194,6.63208604 19.2638469,6.78453884 18.783,6.918 C18.49,7 18.264,7.058 18.137,7.088 L18.367,8.061 C19.107838,7.88192393 19.8379955,7.66124073 20.554,7.4 C21.407,7.085 22.069,6.757 22.486,6.398 C23.144,5.833 23.22,5.1 22.513,4.538 C22.105,4.212 21.418,3.931 20.413,3.676 C20.173,2.736 19.91,2.073 19.613,1.658 L19.612,1.658 Z M4.437,22.4 C4.992,23.175 5.747,23.16 6.339,22.498 C6.709,22.083 7.047,21.408 7.369,20.529 C7.62926597,19.812608 7.84894768,19.0821162 8.027,18.341 L7.053,18.113 C7.023,18.24 6.966,18.466 6.885,18.758 C6.749,19.246 6.597,19.733 6.431,20.185 C6.148,20.953 5.857,21.535 5.593,21.832 C5.407,22.041 5.41,22.041 5.25,21.818 C5.014,21.488 4.769,20.838 4.535,19.853 L4.465,19.552 L4.163,19.482 C3.127,19.238 2.463,18.981 2.159,18.739 C1.994,18.607 1.994,18.609 2.215,18.419 C2.519,18.158 3.092,17.873 3.842,17.597 C4.31078055,17.425914 4.78615309,17.2734612 5.267,17.14 C5.559,17.058 5.785,17 5.912,16.97 L5.682,15.998 C5.543,16.03 5.304,16.091 4.997,16.178 C4.487,16.32 3.975,16.482 3.496,16.658 C2.642,16.973 1.981,17.302 1.563,17.66 C0.905,18.225 0.829,18.958 1.536,19.521 C1.944,19.846 2.631,20.127 3.636,20.382 C3.876,21.322 4.14,21.985 4.437,22.4 Z" id="Shape" fill="#0B1F35"></path>
            <polygon id="Shape" fill="#0B1F35" opacity="0.3" points="8.754 6.754 17.24 15.24 15.24 17.24 6.755 8.754"></polygon>
        </g>
    </g>
</svg>

<svg width="24" height="24" viewBox="0 0 24 24" xmlns="http://www.w3.org/2000/svg"><g fill="none" fill-rule="evenodd"><path d="M0 0h24v24H0z"/><path d="M12 18.5a6.5 6.5 0 1 0 0-13 6.5 6.5 0 0 0 0 13zm0-1a5.5 5.5 0 1 1 0-11 5.5 5.5 0 0 1 0 11zm7.612-15.842c-.554-.774-1.31-.76-1.901-.098-.371.416-.708 1.09-1.03 1.969a19.705 19.705 0 0 0-.658 2.188l.973.228c.03-.127.087-.353.169-.645.135-.488.288-.974.454-1.426.282-.769.573-1.352.838-1.648.186-.209.183-.209.342.014.236.33.482.98.715 1.965l.071.301.301.07c1.037.244 1.7.502 2.004.744.165.13.165.13-.055.32-.304.26-.878.545-1.627.821a18.9 18.9 0 0 1-1.425.457c-.293.082-.519.14-.646.17l.23.973c.74-.18 1.471-.4 2.187-.661.853-.315 1.515-.643 1.932-1.002.658-.565.734-1.298.027-1.86-.408-.326-1.095-.607-2.1-.862-.24-.94-.503-1.603-.8-2.018h-.001zM4.437 22.4c.555.775 1.31.76 1.902.098.37-.415.708-1.09 1.03-1.969.26-.716.48-1.447.658-2.188l-.974-.228c-.03.127-.087.353-.168.645-.136.488-.288.975-.454 1.427-.283.768-.574 1.35-.838 1.647-.186.209-.183.209-.343-.014-.236-.33-.481-.98-.715-1.965l-.07-.301-.302-.07c-1.036-.244-1.7-.501-2.004-.743-.165-.132-.165-.13.056-.32.304-.261.877-.546 1.627-.822a18.9 18.9 0 0 1 1.425-.457c.292-.082.518-.14.645-.17l-.23-.972c-.139.032-.378.093-.685.18-.51.142-1.022.304-1.501.48-.854.315-1.515.644-1.933 1.002-.658.565-.734 1.298-.027 1.861.408.325 1.095.606 2.1.861.24.94.504 1.603.801 2.018z" fill="#0B1F35"/><path fill="#0B1F35" opacity=".3" d="M8.754 6.754l8.486 8.486-2 2-8.485-8.486z"/></g></svg>
